src/icons/checkbox-checked.svg

<svg viewBox="0 0 20 20" fill="none" xmlns="http://www.w3.org/2000/svg">
    <path d="M15.9508 7.31258L8.51063 14.7528C8.44509 14.8183 8.33898 14.8183 8.2736 14.7528L4.04904 10.5281C3.98365 10.4629 3.98365 10.3567 4.04904 10.2912L5.07555 9.2647C5.14108 9.19931 5.2472 9.19931 5.31258 9.2647L8.39227 12.3442L14.6875 6.04904C14.7531 5.98365 14.859 5.98365 14.9245 6.04904L15.9508 7.07555C16.0164 7.14093 16.0164 7.24689 15.9508 7.31258Z" fill="white"/>
</svg>

<svg viewBox="0 0 20 20" fill="none" xmlns="http://www.w3.org/2000/svg"><path d="m15.95 7.313-7.44 7.44a.168.168 0 0 1-.236 0l-4.225-4.225a.168.168 0 0 1 0-.237l1.027-1.026a.168.168 0 0 1 .237 0l3.08 3.08 6.294-6.296a.168.168 0 0 1 .238 0l1.026 1.027a.167.167 0 0 1 0 .237z" fill="#fff"/></svg>
